src/assets/crochet.svg

<?xml version="1.0" encoding="UTF-8"?>
<svg width="75" height="75" version="1.1" viewBox="0 0 75 75" xml:space="preserve" xmlns="http://www.w3.org/2000/svg" xmlns:cc="http://creativecommons.org/ns#" xmlns:dc="http://purl.org/dc/elements/1.1/" xmlns:rdf="http://www.w3.org/1999/02/22-rdf-syntax-ns#"><metadata><rdf:RDF><cc:Work rdf:about=""><dc:format>image/svg+xml</dc:format><dc:type rdf:resource="http://purl.org/dc/dcmitype/StillImage"/><dc:title/></cc:Work></rdf:RDF></metadata><g transform="translate(5.5,5.5)" fill="#4f6174" fill-opacity=".56471"><path d="m58.875 1c-0.755 0-1.496 0.207-2.141 0.599l-9.112 5.532c-4.264-3.95-9.8-6.131-15.622-6.131-12.682 0-23 10.318-23 23 0 2.066 0.289 4.104 0.829 6.077l-5.783 3.511c-1.879 1.141-3.046 3.214-3.046 5.412 0 1.654 1.346 3 3 3s3-1.346 3-3v-0.411l5.207-2.882c4.131 6.97 11.689 11.293 19.793 11.293 0.937 0 1.859-0.063 2.767-0.172 0.397 0.101 0.805 0.172 1.233 0.172h13c1.654 0 3 1.346 3 3s-1.346 3-3 3h-28c-2.757 0-5 2.243-5 5s2.243 5 5 5h29v-2h-29c-1.654 0-3-1.346-3-3s1.346-3 3-3h28c2.757 0 5-2.243 5-5s-2.243-5-5-5h-7.637c8.027-3.593 13.637-11.651 13.637-21 0-3.684-0.893-7.309-2.573-10.558l8.445-4.675c1.313-0.726 2.128-2.109 2.128-3.642 0-2.274-1.851-4.125-4.125-4.125zm-6.875 24.155 0.915 0.528c-0.087 1.084-0.259 2.141-0.504 3.173l-3.411-1.969zm-5 2.887 4.836 2.792c-0.331 0.959-0.725 1.888-1.186 2.779l-6.65-3.84zm-9 16.074v-40.241c1.031 0.307 2.029 0.706 3 1.167v37.904c-0.965 0.459-1.962 0.859-3 1.17zm5-3.373v-3.464l3.402 1.964c-0.777 0.735-1.603 1.418-2.485 2.029zm0-5.774v-3.464l6.646 3.837c-0.548 0.85-1.156 1.654-1.817 2.414zm0-27.712 0.913-0.527c0.662 0.458 1.3 0.955 1.912 1.492l-2.825 1.715zm-31 15.588-0.915-0.528c0.087-1.084 0.259-2.141 0.504-3.173l3.411 1.969zm5-2.887-4.836-2.792c0.331-0.959 0.725-1.888 1.186-2.779l6.65 3.84zm4-12.701v3.464l-3.402-1.964c0.777-0.735 1.603-1.418 2.485-2.029zm0 5.774v3.464l-6.646-3.837c0.548-0.85 1.156-1.654 1.817-2.414zm0 27.712-0.915 0.528c-0.882-0.607-1.716-1.284-2.499-2.021l3.414-1.971zm-9.93-15.051 9.93-5.733v3.335l-9.393 5.703c-0.265-1.084-0.447-2.188-0.537-3.305zm-6.07 11.719v1.589c0 0.551-0.449 1-1 1s-1-0.449-1-1c0-1.503 0.798-2.922 2.083-3.702l15.917-9.664v2.919zm16-6.571v4.13l-4.848 2.799c-0.814-0.934-1.548-1.948-2.194-3.031zm7 13.768v-36.608h-2v36.107c-1.03-0.309-2.033-0.693-3-1.153v-37.899c0.965-0.46 1.962-0.86 3-1.171v2.116h2v-2.607c0.977-0.189 1.981-0.294 3-0.342v35.949h2v-35.953c1.013 0.048 2.017 0.145 3 0.335v41.225c-0.368 0.071-0.744 0.12-1.119 0.171-1.101-0.444-1.881-1.52-1.881-2.778v-1h-2v1c0 1.129 0.391 2.161 1.025 2.999-9e-3 0-0.017 1e-3 -0.025 1e-3 -1.356 0-2.694-0.136-4-0.392zm23.854-27.452-1.965 1.134 1 1.732 1.531-0.884c0.247 1.041 0.418 2.101 0.504 3.172l-9.924 5.731v-3.464l6.312-3.644-1-1.732-5.312 3.067v-3.607l7.678-4.25c0.456 0.887 0.852 1.803 1.176 2.745zm8.05-10.139-16.904 9.358v-4.097l14.771-8.969c0.333-0.202 0.714-0.309 1.104-0.309 1.171 0 2.125 0.954 2.125 2.158 0 0.773-0.42 1.485-1.096 1.859z"/><rect x="52" y="61" width="2" height="2"/></g></svg>

<?xml version="1.0" encoding="UTF-8" standalone="no"?>
<svg
   xmlns:dc="http://purl.org/dc/elements/1.1/"
   xmlns:cc="http://creativecommons.org/ns#"
   xmlns:rdf="http://www.w3.org/1999/02/22-rdf-syntax-ns#"
   xmlns:svg="http://www.w3.org/2000/svg"
   xmlns="http://www.w3.org/2000/svg"
   xmlns:sodipodi="http://sodipodi.sourceforge.net/DTD/sodipodi-0.dtd"
   xmlns:inkscape="http://www.inkscape.org/namespaces/inkscape"
   version="1.1"
   x="0px"
   y="0px"
   viewBox="0 0 64 64"
   xml:space="preserve"
   id="svg12"
   sodipodi:docname="crochet.svg"
   inkscape:version="0.92.3 (2405546, 2018-03-11)"
   width="64"
   height="64"><metadata
     id="metadata18"><rdf:RDF><cc:Work
         rdf:about=""><dc:format>image/svg+xml</dc:format><dc:type
           rdf:resource="http://purl.org/dc/dcmitype/StillImage" /><dc:title /></cc:Work></rdf:RDF></metadata><defs
     id="defs16" /><sodipodi:namedview
     pagecolor="#ffffff"
     bordercolor="#666666"
     borderopacity="1"
     objecttolerance="10"
     gridtolerance="10"
     guidetolerance="10"
     inkscape:pageopacity="0"
     inkscape:pageshadow="2"
     inkscape:window-width="1920"
     inkscape:window-height="1009"
     id="namedview14"
     showgrid="false"
     inkscape:zoom="2.95"
     inkscape:cx="-23.762712"
     inkscape:cy="40"
     inkscape:window-x="0"
     inkscape:window-y="0"
     inkscape:window-maximized="1"
     inkscape:current-layer="svg12" /><g
     id="g6"
     style="fill:#4f6174;fill-opacity:0.56470591"><path
       d="M 58.875,1 C 58.12,1 57.379,1.207 56.734,1.599 L 47.622,7.131 C 43.358,3.181 37.822,1 32,1 19.318,1 9,11.318 9,24 c 0,2.066 0.289,4.104 0.829,6.077 L 4.046,33.588 C 2.167,34.729 1,36.802 1,39 c 0,1.654 1.346,3 3,3 1.654,0 3,-1.346 3,-3 v -0.411 l 5.207,-2.882 C 16.338,42.677 23.896,47 32,47 32.937,47 33.859,46.937 34.767,46.828 35.164,46.929 35.572,47 36,47 h 13 c 1.654,0 3,1.346 3,3 0,1.654 -1.346,3 -3,3 H 21 c -2.757,0 -5,2.243 -5,5 0,2.757 2.243,5 5,5 H 50 V 61 H 21 c -1.654,0 -3,-1.346 -3,-3 0,-1.654 1.346,-3 3,-3 h 28 c 2.757,0 5,-2.243 5,-5 0,-2.757 -2.243,-5 -5,-5 H 41.363 C 49.39,41.407 55,33.349 55,24 55,20.316 54.107,16.691 52.427,13.442 L 60.872,8.767 C 62.185,8.041 63,6.658 63,5.125 63,2.851 61.149,1 58.875,1 Z M 52,25.155 l 0.915,0.528 c -0.087,1.084 -0.259,2.141 -0.504,3.173 L 49,26.887 Z m -5,2.887 4.836,2.792 c -0.331,0.959 -0.725,1.888 -1.186,2.779 L 44,29.773 Z M 38,44.116 V 3.875 c 1.031,0.307 2.029,0.706 3,1.167 v 37.904 c -0.965,0.459 -1.962,0.859 -3,1.17 z m 5,-3.373 v -3.464 l 3.402,1.964 c -0.777,0.735 -1.603,1.418 -2.485,2.029 z m 0,-5.774 v -3.464 l 6.646,3.837 c -0.548,0.85 -1.156,1.654 -1.817,2.414 z M 43,7.257 43.913,6.73 c 0.662,0.458 1.3,0.955 1.912,1.492 L 43,9.937 Z M 12,22.845 11.085,22.317 c 0.087,-1.084 0.259,-2.141 0.504,-3.173 L 15,21.113 Z m 5,-2.887 -4.836,-2.792 c 0.331,-0.959 0.725,-1.888 1.186,-2.779 L 20,18.227 Z M 21,7.257 v 3.464 L 17.598,8.757 c 0.777,-0.735 1.603,-1.418 2.485,-2.029 z m 0,5.774 v 3.464 l -6.646,-3.837 c 0.548,-0.85 1.156,-1.654 1.817,-2.414 z m 0,27.712 -0.915,0.528 C 19.203,40.664 18.369,39.987 17.586,39.25 L 21,37.279 Z M 11.07,25.692 21,19.959 v 3.335 l -9.393,5.703 C 11.342,27.913 11.16,26.809 11.07,25.692 Z M 5,37.411 V 39 C 5,39.551 4.551,40 4,40 3.449,40 3,39.551 3,39 3,37.497 3.798,36.078 5.083,35.298 L 21,25.634 v 2.919 z M 21,30.84 v 4.13 l -4.848,2.799 c -0.814,-0.934 -1.548,-1.948 -2.194,-3.031 z m 7,13.768 V 8 H 26 V 44.107 C 24.97,43.798 23.967,43.414 23,42.954 V 5.055 c 0.965,-0.46 1.962,-0.86 3,-1.171 V 6 h 2 V 3.393 C 28.977,3.204 29.981,3.099 31,3.051 V 39 h 2 V 3.047 c 1.013,0.048 2.017,0.145 3,0.335 v 41.225 c -0.368,0.071 -0.744,0.12 -1.119,0.171 C 33.78,44.334 33,43.258 33,42 v -1 h -2 v 1 c 0,1.129 0.391,2.161 1.025,2.999 C 32.016,44.999 32.008,45 32,45 30.644,45 29.306,44.864 28,44.608 Z m 23.854,-27.452 -1.965,1.134 1,1.732 1.531,-0.884 c 0.247,1.041 0.418,2.101 0.504,3.172 L 43,28.041 v -3.464 l 6.312,-3.644 -1,-1.732 L 43,22.268 v -3.607 l 7.678,-4.25 c 0.456,0.887 0.852,1.803 1.176,2.745 z M 59.904,7.017 43,16.375 V 12.278 L 57.771,3.309 C 58.104,3.107 58.485,3 58.875,3 60.046,3 61,3.954 61,5.158 61,5.931 60.58,6.643 59.904,7.017 Z"
       id="path2"
       inkscape:connector-curvature="0"
       style="fill:#4f6174;fill-opacity:0.56470591" /><rect
       x="52"
       y="61"
       width="2"
       height="2"
       id="rect4"
       style="fill:#4f6174;fill-opacity:0.56470591" /></g></svg>
